rawiniw/Capstone-Project/Financial/topic_stock.csv
1,2,3,4,5,6,7,8,9,10,11,12,company,Revenue,yoy_growth,pci,Q2,Q3,Q4,actual_quarter,quarter,Price,sp_index_change
0.027777778,0.083333333,0.305555556,0,0.027777778,0.194444444,0.111111111,0.083333333,0.166666667,0,0,0,Walmart,99.81,0.059104414,0.401415054,0,0,0,2010Q1,2010Q1,0.02526277,0.032162685
0,0.076923077,0.256410256,0.051282051,0.051282051,0.179487179,0.025641026,0.102564103,0.179487179,0.025641026,0.051282051,0,Walmart,103.73,0.028251388,0.475072152,1,0,0,2010Q2,2010Q2,-0.133717787,-0.125108225
0.023809524,0.095238095,0.285714286,0.095238095,0.023809524,0.166666667,0,0.119047619,0.142857143,0.023809524,0,0.023809524,Walmart,101.95,0.02596357,0.093250498,0,1,0,2010Q3,2010Q3,0.107157633,0.110797473
0,0.051282051,0.333333333,0.153846154,0,0.230769231,0,0.076923077,0.128205128,0,0.025641026,0,Walmart,116.36,0.024115473,0.294916321,0,0,1,2010Q4,2010Q4,0.010682159,0.097187326
0,0.071428571,0.30952381,0.047619048,0,0.261904762,0.023809524,0.119047619,0.119047619,0,0.023809524,0.023809524,Walmart,104.19,0.043883378,1.264822375,0,0,0,2011Q1,2011Q1,-0.046004399,0.04242572
0,0.066666667,0.333333333,0.088888889,0,0.2,0,0.088888889,0.133333333,0.022222222,0.066666667,0,Walmart,109.37,0.054371927,1.743310892,1,0,0,2011Q2,2011Q2,0.01937464,-0.008833617
0.039215686,0.039215686,0.235294118,0.058823529,0.019607843,0.215686275,0.039215686,0.058823529,0.117647059,0.019607843,0.098039216,0.058823529,Walmart,110.23,0.081216282,0.408517984,0,1,0,2011Q3,2011Q3,-0.030087834,-0.15544873
0,0.097560976,0.341463415,0.12195122,0.024390244,0.195121951,0.024390244,0.073170732,0.073170732,0.024390244,0.024390244,0,Walmart,122.73,0.054743898,-0.15205577,0,0,1,2011Q4,2011Q4,0.150115473,0.144073579
0,0.109090909,0.290909091,0.072727273,0,0.2,0.018181818,0.127272727,0.145454545,0.018181818,0.018181818,0,Walmart,113.01,0.084653038,0.795638656,0,0,0,2012Q1,2012Q1,0.014420686,0.102900412
0,0.088235294,0.323529412,0.088235294,0,0.205882353,0,0.088235294,0.117647059,0,0.058823529,0.029411765,Walmart,114.28,0.044893481,0.827531738,1,0,0,2012Q2,2012Q2,0.136245111,-0.040083437
0.018518519,0.074074074,0.314814815,0.074074074,0.018518519,0.166666667,0,0.111111111,0.148148148,0,0.074074074,0,Walmart,113.8,0.032386828,0.219328148,0,1,0,2012Q3,2012Q3,0.064167267,0.055041706
0,0.084507042,0.323943662,0.154929577,0.014084507,0.154929577,0.042253521,0.098591549,0.070422535,0,0.042253521,0.014084507,Walmart,127.78,0.041147234,0.03604047,0,0,1,2012Q4,2012Q4,-0.078595544,-0.012668831
0.051948052,0.064935065,0.220779221,0.103896104,0.025974026,0.181818182,0.012987013,0.064935065,0.116883117,0.064935065,0.038961039,0.051948052,Walmart,114.07,0.009379701,0.590329876,0,0,0,2013Q1,2013Q1,0.08073368,0.073009122
0.043478261,0.057971014,0.304347826,0.028985507,0.057971014,0.173913043,0,0.086956522,0.101449275,0.014492754,0.115942029,0.014492754,Walmart,116.83,0.022313616,0.540980612,1,0,0,2013Q2,2013Q2,-0.012461885,0.028236364
0.03,0.06,0.27,0.06,0.04,0.16,0.03,0.1,0.08,0.05,0.08,0.04,Walmart,115.69,0.016608084,0.377979341,0,1,0,2013Q3,2013Q3,-0.008446172,0.041233219
0.03960396,0.059405941,0.237623762,0.128712871,0.059405941,0.089108911,0.069306931,0.079207921,0.04950495,0.108910891,0.069306931,0.00990099,Walmart,129.71,0.015104085,-0.279067646,0,0,1,2013Q4,2013Q4,0.069302894,0.090477876
0.099173554,0.049586777,0.198347107,0.041322314,0.05785124,0.107438017,0.008264463,0.107438017,0.132231405,0.082644628,0.05785124,0.05785124,Walmart,114.96,0.007802227,0.76122253,0,0,0,2014Q1,2014Q1,-0.031428209,0.022030808
0.045977011,0.068965517,0.24137931,0.08045977,0.103448276,0.08045977,0.034482759,0.103448276,0.057471264,0.091954023,0.068965517,0.022988506,Walmart,120.12,0.028160575,1.180867814,1,0,0,2014Q2,2014Q2,-0.022144067,0.039623022
0.012195122,0.06097561,0.304878049,0.097560976,0.097560976,0.073170732,0.06097561,0.048780488,0.06097561,0.085365854,0.073170732,0.024390244,Walmart,119,0.028610943,0.114675844,0,1,0,2014Q3,2014Q3,0.015807651,-0.000521963
0.04494382,0.08988764,0.202247191,0.123595506,0.056179775,0.06741573,0.011235955,0.078651685,0.056179775,0.078651685,0.08988764,0.101123596,Walmart,131.56,0.014262586,-0.803351757,0,0,1,2014Q4,2014Q4,0.128218602,0.057929461
0,0.090909091,0.340909091,0.090909091,0.068181818,0.113636364,0.022727273,0.136363636,0.113636364,0,0,0.022727273,Walmart,114.83,-0.001130828,-0.543199002,0,0,0,2015Q1,2015Q1,-0.042491269,0.004707997
0,0.09375,0.34375,0.09375,0.0625,0.0625,0,0.1875,0.15625,0,0,0,Walmart,120.23,0.000915751,1.205595644,1,0,0,2015Q2,2015Q2,-0.121174576,0.001660444
0,0.051282051,0.333333333,0.076923077,0.102564103,0.102564103,0.051282051,0.102564103,0.153846154,0,0,0.025641026,Walmart,117.41,-0.013361345,0.262677374,0,1,0,2015Q3,2015Q3,-0.097941013,-0.075762244
0.057692308,0.048076923,0.125,0.028846154,0.067307692,0.038461538,0.105769231,0.163461538,0.096153846,0.115384615,0.096153846,0.057692308,Walmart,129.67,-0.014366069,-0.449843688,0,0,1,2015Q4,2015Q4,-0.046211296,0.062438274
0.015873016,0.063492063,0.158730159,0.063492063,0.103174603,0.015873016,0.087301587,0.158730159,0.103174603,0.103174603,0.087301587,0.03968254,Walmart,115.9,0.009318122,0.064634066,0,0,0,2016Q1,2016Q1,0.114383339,0.023391929
0,0.09009009,0.207207207,0.036036036,0.081081081,0.036036036,0.072072072,0.153153153,0.081081081,0.162162162,0.018018018,0.063063063,Walmart,120.85,0.005156783,1.172350557,1,0,0,2016Q2,2016Q2,0.057341442,0.012582136
0,0.038461538,0.384615385,0,0.076923077,0.115384615,0,0.115384615,0.153846154,0.038461538,0.038461538,0.038461538,Walmart,118.18,0.006558215,0.332681941,0,1,0,2016Q3,2016Q3,-0.00947672,0.031061128
0.051094891,0.051094891,0.116788321,0.02919708,0.094890511,0.04379562,0.094890511,0.167883212,0.109489051,0.138686131,0.051094891,0.051094891,Walmart,130.94,0.009794093,0.222574197,0,0,1,2016Q4,2016Q4,-0.040133315,0.035919859
0.032967033,0.043956044,0.131868132,0.021978022,0.10989011,0.087912088,0.076923077,0.153846154,0.087912088,0.131868132,0.054945055,0.065934066,Walmart,117.54,0.014150129,0.790736963,0,0,0,2017Q1,2017Q1,0.049810661,0.046456111
0.045081967,0.053278689,0.114754098,0.040983607,0.114754098,0.053278689,0.151639344,0.151639344,0.049180328,0.147540984,0.028688525,0.049180328,Walmart,123.36,0.020769549,0.543517706,1,0,0,2017Q2,2017Q2,0.053598775,0.027373624
0.047619048,0.047619048,0.285714286,0.095238095,0.142857143,0.095238095,0,0.095238095,0.142857143,0.047619048,0,0,Walmart,123.18,0.042308343,0.396615691,0,1,0,2017Q3,2017Q3,0.036889597,0.037196224
0.037037037,0.037037037,0.12962963,0.024691358,0.098765432,0.043209877,0.12962963,0.166666667,0.092592593,0.135802469,0.049382716,0.055555556,Walmart,136.27,0.040705667,0.370629636,0,0,1,2017Q4,2017Q4,0.258763544,0.057130543
0.086206897,0.011494253,0.063218391,0.045977011,0.109195402,0.063218391,0.103448276,0.137931034,0.08045977,0.166666667,0.074712644,0.057471264,Walmart,122.69,0.043814872,0.88611838,0,0,0,2018Q1,2018Q1,-0.097575819,-0.020379775
0.059405941,0.03960396,0.123762376,0.01980198,0.074257426,0.054455446,0.099009901,0.103960396,0.138613861,0.168316832,0.03960396,0.079207921,Walmart,128.03,0.03785668,1.033075567,1,0,0,2018Q2,2018Q2,0.001168907,0.052864579
0,0.041666667,0.333333333,0.083333333,0.041666667,0.166666667,0,0.125,0.208333333,0,0,0,Walmart,124.89,0.013882124,0.327267568,0,1,0,2018Q3,2018Q3,0.11797619,0.068679838
0.023728814,0.044067797,0.138983051,0.054237288,0.091525424,0.027118644,0.084745763,0.230508475,0.071186441,0.13559322,0.040677966,0.057627119,Walmart,138.79,0.018492698,-0.057494736,0,0,1,2018Q4,2018Q4,-0.013241525,-0.142837116
0.068571429,0.034285714,0.082857143,0.037142857,0.108571429,0.034285714,0.125714286,0.165714286,0.042857143,0.182857143,0.062857143,0.054285714,Walmart,123.92,0.010025267,0.335116034,0,0,0,2019Q1,2019Q1,0.044889651,0.129229531
0.058461538,0.033846154,0.101538462,0.033846154,0.070769231,0.027692308,0.08,0.16,0.046153846,0.193846154,0.086153846,0.107692308,Walmart,130.38,0.018355073,1.198513227,1,0,0,2019Q2,2019Q2,0.129523615,0.026008043
0.03626943,0.03626943,0.103626943,0.062176166,0.051813472,0.015544041,0.155440415,0.134715026,0.020725389,0.18134715,0.051813472,0.150259067,Walmart,127.99,0.024821843,0.274166008,0,1,0,2019Q3,2019Q3,0.07286205,0.004186443
0.027472527,0.032967033,0.071428571,0.076923077,0.120879121,0.021978022,0.076923077,0.164835165,0.065934066,0.247252747,0.027472527,0.065934066,Walmart,141.67,0.020750775,0.213017997,0,0,1,2019Q4,2019Q4,0.008400509,0.098811326
0.109589041,0.02739726,0.04109589,0.04109589,0.205479452,0.136986301,0.054794521,0.054794521,0.082191781,0.082191781,0.082191781,0.082191781,Amazon,6.566,0.411739411,0.401415054,0,0,0,2010Q1,2010Q1,0.013965646,0.032162685
0.133333333,0,0,0.088888889,0.2,0.244444444,0,0.022222222,0.111111111,0.022222222,0.022222222,0.155555556,Amazon,7.56,0.387410534,0.475072152,1,0,0,2010Q2,2010Q2,-0.171079584,-0.125108225
0.146341463,0.024390244,0.024390244,0.048780488,0.243902439,0.048780488,0.048780488,0,0.170731707,0.024390244,0.024390244,0.195121951,Amazon,9.857,0.382274576,0.294916321,0,0,1,2010Q4,2010Q4,0.171036367,0.097187326
0.074074074,0.018518519,0.018518519,0,0.296296296,0.240740741,0.018518519,0.055555556,0.111111111,0.055555556,0,0.111111111,Amazon,9.913,0.509747182,1.264822375,0,0,0,2011Q1,2011Q1,-0.022201715,0.04242572
0.071428571,0,0.035714286,0.017857143,0.196428571,0.125,0.017857143,0.071428571,0.178571429,0.071428571,0.071428571,0.142857143,Amazon,10.88,0.439153439,1.743310892,1,0,0,2011Q2,2011Q2,0.135235663,-0.008833617
0.057692308,0.057692308,0.019230769,0.057692308,0.211538462,0.115384615,0.019230769,0.038461538,0.076923077,0.038461538,0.076923077,0.230769231,Amazon,17.43,0.345945946,0.408517984,0,1,0,2011Q3,2011Q3,0.032173373,-0.15544873
0.156862745,0.039215686,0,0.039215686,0.117647059,0.156862745,0.019607843,0.019607843,0.137254902,0.019607843,0.039215686,0.254901961,Amazon,13.18,0.337120828,-0.15205577,0,0,1,2011Q4,2011Q4,-0.18341353,0.144073579
0.147540984,0.032786885,0.049180328,0.049180328,0.262295082,0.098360656,0,0.049180328,0.098360656,0.06557377,0.032786885,0.114754098,Amazon,12.83,0.294260063,0.795638656,0,0,0,2012Q1,2012Q1,0.131151204,0.102900412
0.102040816,0.06122449,0.020408163,0.020408163,0.244897959,0.224489796,0.020408163,0.020408163,0.040816327,0.081632653,0.102040816,0.06122449,Amazon,13.81,0.269301471,0.827531738,1,0,0,2012Q2,2012Q2,0.152991669,-0.040083437
0.037735849,0,0.037735849,0.056603774,0.245283019,0.113207547,0.037735849,0,0.132075472,0.056603774,0.056603774,0.226415094,Amazon,21.27,0.220309811,0.219328148,0,1,0,2012Q3,2012Q3,0.109017966,0.055041706
0.137254902,0.078431373,0.039215686,0.019607843,0.254901961,0.078431373,0.058823529,0,0.156862745,0.039215686,0.039215686,0.098039216,Amazon,16.07,0.219271624,0.03604047,0,0,1,2012Q4,2012Q4,-0.00452363,-0.012668831
0.106382979,0.042553191,0.042553191,0,0.170212766,0.14893617,0,0.106382979,0.042553191,0.063829787,0.042553191,0.234042553,Amazon,15.7,0.223694466,0.590329876,0,0,0,2013Q1,2013Q1,0.03567681,0.073009122
0.064935065,0.103896104,0.038961039,0.051948052,0.181818182,0.038961039,0.038961039,0.103896104,0.090909091,0.090909091,0.012987013,0.181818182,Amazon,17.09,0.237509051,0.540980612,1,0,0,2013Q2,2013Q2,0.06146554,0.028236364
0.074626866,0.059701493,0.029850746,0.089552239,0.208955224,0.089552239,0.014925373,0.014925373,0.119402985,0.059701493,0.044776119,0.194029851,Amazon,25.59,0.203102962,0.377979341,0,1,0,2013Q3,2013Q3,0.108259482,0.041233219
0.085714286,0.057142857,0.014285714,0.071428571,0.2,0.128571429,0,0.028571429,0.071428571,0.028571429,0.142857143,0.171428571,Amazon,19.74,0.228375856,-0.279067646,0,0,1,2013Q4,2013Q4,0.242529989,0.090477876
0.072463768,0.028985507,0.014492754,0.043478261,0.15942029,0.15942029,0.028985507,0.028985507,0.043478261,0.028985507,0.130434783,0.260869565,Amazon,19.34,0.231847134,0.76122253,0,0,0,2014Q1,2014Q1,-0.154785537,0.022030808
0.152542373,0.033898305,0.016949153,0.016949153,0.169491525,0.13559322,0.016949153,0,0.084745763,0.06779661,0.050847458,0.254237288,Amazon,20.58,0.20421299,1.180867814,1,0,0,2014Q2,2014Q2,-0.053091927,0.039623022
0.096774194,0.080645161,0.032258065,0.048387097,0.177419355,0.112903226,0.016129032,0.048387097,0.096774194,0.048387097,0.048387097,0.193548387,Amazon,29.33,0.14615084,0.114675844,0,1,0,2014Q3,2014Q3,-0.029934715,-0.000521963
0.083333333,0.0625,0.020833333,0.020833333,0.166666667,0.104166667,0.083333333,0.083333333,0.104166667,0.083333333,0.0625,0.125,Amazon,22.72,0.150962513,-0.803351757,0,0,1,2014Q4,2014Q4,-0.022396522,0.057929461
0.136363636,0.015151515,0.03030303,0,0.257575758,0.121212121,0.015151515,0.060606061,0.106060606,0.015151515,0.075757576,0.166666667,Amazon,23.18,0.198552223,-0.543199002,0,0,0,2015Q1,2015Q1,0.206080643,0.004707997
0.075268817,0.075268817,0.043010753,0.053763441,0.23655914,0.053763441,0.021505376,0.010752688,0.107526882,0.064516129,0.107526882,0.150537634,Amazon,25.36,0.232264334,1.205595644,1,0,0,2015Q2,2015Q2,0.172424038,0.001660444
0.095238095,0.047619048,0.023809524,0.05952381,0.25,0.071428571,0.011904762,0.05952381,0.095238095,0.142857143,0.023809524,0.119047619,Amazon,35.75,0.21888851,0.262677374,0,1,0,2015Q3,2015Q3,0.17032854,-0.075762244
0.075949367,0.025316456,0.088607595,0.075949367,0.265822785,0.050632911,0.012658228,0.025316456,0.075949367,0.151898734,0,0.151898734,Amazon,29.13,0.282130282,-0.449843688,0,0,1,2015Q4,2015Q4,0.297991243,0.062438274
0.080808081,0.080808081,0,0.03030303,0.242424242,0.080808081,0.03030303,0.070707071,0.101010101,0.080808081,0.04040404,0.161616162,Amazon,30.4,0.31147541,0.064634066,0,0,0,2016Q1,2016Q1,-0.068054444,0.023391929
0.115384615,0.064102564,0.051282051,0.025641026,0.243589744,0.08974359,0.012820513,0.076923077,0.076923077,0.051282051,0.025641026,0.166666667,Amazon,32.71,0.289826498,1.172350557,1,0,0,2016Q2,2016Q2,0.195689223,0.012582136
0.072463768,0.057971014,0.014492754,0.086956522,0.246376812,0.072463768,0.028985507,0.072463768,0.057971014,0.173913043,0.028985507,0.086956522,Amazon,43.74,0.223496503,0.332681941,0,1,0,2016Q3,2016Q3,0.153828134,0.031061128
0.058823529,0.117647059,0,0.014705882,0.367647059,0.088235294,0.014705882,0.073529412,0.029411765,0.044117647,0.044117647,0.147058824,Amazon,35.71,0.225883968,0.222574197,0,0,1,2016Q4,2016Q4,-0.103819586,0.035919859
0.109090909,0.072727273,0.018181818,0.018181818,0.327272727,0.090909091,0.018181818,0.036363636,0.018181818,0.072727273,0.018181818,0.2,Amazon,37.96,0.248684211,0.790736963,0,0,0,2017Q1,2017Q1,0.176297318,0.046456111
0.064516129,0.016129032,0.016129032,0.016129032,0.306451613,0.080645161,0.048387097,0.064516129,0.096774194,0.080645161,0.080645161,0.129032258,Amazon,43.74,0.337205747,0.543517706,1,0,0,2017Q2,2017Q2,0.085798252,0.027373624
0.035087719,0.105263158,0.01754386,0.01754386,0.245614035,0.087719298,0.035087719,0.140350877,0.035087719,0.087719298,0.052631579,0.140350877,Amazon,60.45,0.382030178,0.396615691,0,1,0,2017Q3,2017Q3,0.00806367,0.037196224
0.057142857,0.042857143,0.071428571,0.042857143,0.242857143,0.1,0.071428571,0.085714286,0.014285714,0.014285714,0.071428571,0.185714286,Amazon,51.04,0.429291515,0.370629636,0,0,1,2017Q4,2017Q4,0.219226639,0.057130543
0.014492754,0.101449275,0.057971014,0.072463768,0.275362319,0.086956522,0.043478261,0.043478261,0.057971014,0.101449275,0.014492754,0.130434783,Amazon,52.89,0.393308746,0.88611838,0,0,0,2018Q1,2018Q1,0.217264783,-0.020379775
0.057142857,0.085714286,0.028571429,0.028571429,0.285714286,0.057142857,0.014285714,0.028571429,0.114285714,0.071428571,0.085714286,0.142857143,Amazon,56.58,0.293552812,1.033075567,1,0,0,2018Q2,2018Q2,0.238930313,0.052864579
0.092307692,0.061538462,0.030769231,0.046153846,0.246153846,0.107692308,0.015384615,0.061538462,0.061538462,0.076923077,0.061538462,0.138461538,Amazon,72.38,0.197353184,0.327267568,0,1,0,2018Q3,2018Q3,0.168761451,0.068679838
0.076923077,0.076923077,0.015384615,0.030769231,0.261538462,0.123076923,0.061538462,0.030769231,0.076923077,0.030769231,0.046153846,0.169230769,Amazon,59.7,0.169670846,-0.057494736,0,0,1,2018Q4,2018Q4,-0.250648586,-0.142837116
0.098360656,0.06557377,0.06557377,0,0.278688525,0.06557377,0.081967213,0.06557377,0.098360656,0,0.098360656,0.081967213,Amazon,63.4,0.198714313,0.335116034,0,0,0,2019Q1,2019Q1,0.15698479,0.129229531
0.111111111,0.055555556,0,0,0.333333333,0.092592593,0.092592593,0.074074074,0.037037037,0.037037037,0.037037037,0.12962963,Amazon,69.98,0.236832803,1.198513227,1,0,0,2019Q2,2019Q2,0.043788137,0.026008043
0.109375,0.0625,0,0.03125,0.265625,0.078125,0.0625,0.109375,0.046875,0.0625,0.0625,0.109375,Amazon,87.44,0.208068527,0.274166008,0,1,0,2019Q3,2019Q3,-0.096910295,0.004186443
0.224137931,0.103448276,0.017241379,0.034482759,0,0.086206897,0.017241379,0.103448276,0.034482759,0.24137931,0.120689655,0.017241379,Costco,17.78,0.124604681,0.401415054,0,0,0,2010Q1,2010Q1,0.005217391,0.032162685
0.203883495,0.087378641,0.038834951,0.058252427,0.048543689,0.067961165,0.029126214,0.038834951,0.019417476,0.223300971,0.13592233,0.048543689,Costco,24.12,0.077747989,0.475072152,1,0,0,2010Q2,2010Q2,-0.088300979,-0.125108225
0.186046512,0.069767442,0.034883721,0.046511628,0.046511628,0.104651163,0.023255814,0.046511628,0.011627907,0.186046512,0.151162791,0.093023256,Costco,20.88,0.114194237,0.294916321,0,0,1,2010Q4,2010Q4,0.110069886,0.097187326
0.269230769,0.038461538,0.025641026,0.038461538,0.025641026,0.102564103,0.012820513,0.038461538,0,0.230769231,0.179487179,0.038461538,Costco,20.62,0.159730034,1.264822375,0,0,0,2011Q1,2011Q1,0.011689237,0.04242572
0.216216216,0.013513514,0.013513514,0,0.013513514,0.175675676,0.027027027,0.040540541,0,0.27027027,0.175675676,0.054054054,Costco,28.18,0.168325041,1.743310892,1,0,0,2011Q2,2011Q2,0.094058717,-0.008833617
0.244019139,0.100478469,0.009569378,0.057416268,0.019138756,0.114832536,0.023923445,0.009569378,0.023923445,0.210526316,0.119617225,0.066985646,Costco,22.97,0.100095785,-0.15205577,0,0,1,2011Q4,2011Q4,0.020756866,0.144073579
0.182795699,0.043010753,0.032258065,0.053763441,0.032258065,0.086021505,0.043010753,0.064516129,0.032258065,0.225806452,0.172043011,0.032258065,Costco,22.32,0.082444229,0.795638656,0,0,0,2012Q1,2012Q1,0.073269019,0.102900412
0.262135922,0.097087379,0.029126214,0.038834951,0.029126214,0.067961165,0.009708738,0.029126214,0.067961165,0.184466019,0.145631068,0.038834951,Costco,32.22,0.143364088,0.827531738,1,0,0,2012Q2,2012Q2,0.03442457,-0.040083437
0.236641221,0.091603053,0.022900763,0.06870229,0.030534351,0.122137405,0.015267176,0.022900763,0.045801527,0.221374046,0.099236641,0.022900763,Costco,24.87,0.082716587,0.03604047,0,0,1,2012Q4,2012Q4,-0.017781889,-0.012668831
0.211764706,0.094117647,0.035294118,0.047058824,0.035294118,0.094117647,0.011764706,0.011764706,0.047058824,0.270588235,0.094117647,0.047058824,Costco,24.08,0.078853047,0.590329876,0,0,0,2013Q1,2013Q1,0.04592668,0.073009122
0.153846154,0.057692308,0.057692308,0.038461538,0.057692308,0.134615385,0.048076923,0.028846154,0.067307692,0.25,0.067307692,0.038461538,Costco,32.49,0.008379888,0.540980612,1,0,0,2013Q2,2013Q2,0.044913103,0.028236364
0.172839506,0.086419753,0.030864198,0.055555556,0.049382716,0.104938272,0.024691358,0.012345679,0.018518519,0.277777778,0.12345679,0.043209877,Costco,26.31,0.057901086,-0.279067646,0,0,1,2013Q4,2013Q4,0.034947444,0.090477876
0.193181818,0.068181818,0.034090909,0.068181818,0.056818182,0.102272727,0.022727273,0.045454545,0.011363636,0.227272727,0.136363636,0.034090909,Costco,26.87,0.073940847,0.114675844,0,1,0,2014Q3,2014Q3,0.085555754,-0.000521963
0.225352113,0.126760563,0.028169014,0.028169014,0.028169014,0.098591549,0.014084507,0.042253521,0.028169014,0.23943662,0.126760563,0.014084507,Costco,27.45,0.043329532,-0.803351757,0,0,1,2014Q4,2014Q4,0.136137794,0.057929461
0.226415094,0.056603774,0.037735849,0.066037736,0.08490566,0.113207547,0.018867925,0.037735849,0.018867925,0.226415094,0.08490566,0.028301887,Costco,26.1,0.012020163,-0.543199002,0,0,0,2015Q1,2015Q1,0.105274677,0.004707997
0.215517241,0.086206897,0.060344828,0.060344828,0.043103448,0.060344828,0.043103448,0.034482759,0.051724138,0.224137931,0.103448276,0.017241379,Costco,35.78,0.00731982,1.205595644,1,0,0,2015Q2,2015Q2,-0.101038339,0.001660444
0.284482759,0.086206897,0.034482759,0.025862069,0.051724138,0.043103448,0.025862069,0.034482759,0.043103448,0.198275862,0.120689655,0.051724138,Costco,27.22,0.013025679,0.262677374,0,1,0,2015Q3,2015Q3,0.059198476,-0.075762244
0.157407407,0.12962963,0.046296296,0.046296296,0.074074074,0.037037037,0.046296296,0.074074074,0.018518519,0.231481481,0.083333333,0.055555556,Costco,28.17,0.026229508,-0.449843688,0,0,1,2015Q4,2015Q4,0.117183177,0.062438274
0.181034483,0.137931034,0.060344828,0.060344828,0.068965517,0.086206897,0.051724138,0.017241379,0.025862069,0.206896552,0.051724138,0.051724138,Costco,26.77,0.025670498,0.064634066,0,0,0,2016Q1,2016Q1,-0.01228532,0.023391929
0.299212598,0.157480315,0.015748031,0.031496063,0.007874016,0.023622047,0.023622047,0.062992126,0.015748031,0.212598425,0.102362205,0.047244094,Costco,36.56,0.021799888,1.172350557,1,0,0,2016Q2,2016Q2,-0.00764613,0.012582136
0.3,0.1,0.025,0.025,0.025,0.0375,0.05,0.05,0,0.2625,0.1125,0.0125,Costco,28.1,0.03232917,0.332681941,0,1,0,2016Q3,2016Q3,-0.023060662,0.031061128
0.223300971,0.126213592,0.048543689,0.058252427,0.048543689,0.038834951,0.009708738,0.029126214,0.019417476,0.223300971,0.116504854,0.058252427,Costco,29.77,0.056798012,0.222574197,0,0,1,2016Q4,2016Q4,0.06026091,0.035919859
0.229357798,0.119266055,0.027522936,0.027522936,0.064220183,0.082568807,0.018348624,0.055045872,0.018348624,0.183486239,0.128440367,0.04587156,Costco,28.86,0.078072469,0.790736963,0,0,0,2017Q1,2017Q1,0.049834095,0.046456111
0.222222222,0.136752137,0.017094017,0.025641026,0.051282051,0.085470085,0.068376068,0.017094017,0.017094017,0.205128205,0.068376068,0.085470085,Costco,42.3,0.157002188,0.543517706,1,0,0,2017Q2,2017Q2,-0.040611878,0.027373624
0.192307692,0.105769231,0.028846154,0.038461538,0.096153846,0.096153846,0.057692308,0.028846154,0.009615385,0.221153846,0.115384615,0.009615385,Costco,31.81,0.13202847,0.396615691,0,1,0,2017Q3,2017Q3,0.034441506,0.037196224
0.19047619,0.136054422,0.040816327,0.020408163,0.102040816,0.074829932,0.034013605,0.040816327,0.034013605,0.25170068,0.034013605,0.040816327,Costco,33,0.108498488,0.370629636,0,0,1,2017Q4,2017Q4,0.121948279,0.057130543
0.191176471,0.102941176,0.029411765,0.044117647,0.044117647,0.044117647,0.029411765,0.029411765,0.058823529,0.308823529,0.044117647,0.073529412,Costco,32.36,0.121275121,0.88611838,0,0,0,2018Q1,2018Q1,0.000584112,-0.020379775
0.20754717,0.075471698,0.047169811,0.047169811,0.037735849,0.103773585,0.018867925,0.075471698,0.028301887,0.198113208,0.113207547,0.047169811,Costco,44.41,0.049881797,1.033075567,1,0,0,2018Q2,2018Q2,0.143529412,0.052864579
0.11827957,0.107526882,0.010752688,0.032258065,0.043010753,0.107526882,0.064516129,0.043010753,0.010752688,0.268817204,0.161290323,0.032258065,Costco,35.07,0.102483496,0.327267568,0,1,0,2018Q3,2018Q3,0.129285062,0.068679838
0.191666667,0.1,0.033333333,0.041666667,0.058333333,0.083333333,0.058333333,0.033333333,0.033333333,0.241666667,0.075,0.05,Costco,35.4,0.072727273,-0.057494736,0,0,1,2018Q4,2018Q4,-0.131855956,-0.142837116
0.171052632,0.078947368,0.013157895,0.039473684,0.092105263,0.105263158,0.026315789,0.026315789,0.052631579,0.276315789,0.078947368,0.039473684,Costco,34.74,0.07354759,0.335116034,0,0,0,2019Q1,2019Q1,0.182555187,0.129229531
0.217391304,0.014492754,0.014492754,0.028985507,0.057971014,0.101449275,0.014492754,0.072463768,0.028985507,0.217391304,0.15942029,0.072463768,Costco,47.5,0.069578924,1.198513227,1,0,0,2019Q2,2019Q2,0.082190098,0.026008043
0.070175439,0.122807018,0.035087719,0.070175439,0.070175439,0.070175439,0.070175439,0.052631579,0,0.263157895,0.122807018,0.052631579,Costco,37.04,0.056173368,0.274166008,0,1,0,2019Q3,2019Q3,0.093189148,0.004186443
0.151162791,0.069767442,0.011627907,0.081395349,0.034883721,0.093023256,0.034883721,0.058139535,0.046511628,0.220930233,0.127906977,0.069767442,Costco,39.07,0.103672316,0.213017997,0,0,1,2019Q4,2019Q4,0.035184729,0.098811326
0.153846154,0.038461538,0.051282051,0.153846154,0.051282051,0.051282051,0.012820513,0.141025641,0.051282051,0.102564103,0.115384615,0.076923077,Target,15.53,0.03052422,0.475072152,1,0,0,2010Q2,2010Q2,-0.074534161,-0.125108225
0.181818182,0.060606061,0.045454545,0.196969697,0.045454545,0.045454545,0.03030303,0.075757576,0.060606061,0.136363636,0.090909091,0.03030303,Target,20.66,0.023785927,0.294916321,0,0,1,2010Q4,2010Q4,0.124555826,0.097187326
0.166666667,0.037037037,0.074074074,0.148148148,0.055555556,0.037037037,0.074074074,0.018518519,0.148148148,0.092592593,0.092592593,0.055555556,Target,15.94,0.022450289,1.264822375,0,0,0,2011Q1,2011Q1,-0.17706105,0.04242572
0.222222222,0.055555556,0.041666667,0.152777778,0.027777778,0.069444444,0.083333333,0.083333333,0.097222222,0.041666667,0.069444444,0.055555556,Target,16.24,0.045717965,1.743310892,1,0,0,2011Q2,2011Q2,-0.068506751,-0.008833617
0.189189189,0.013513514,0.067567568,0.202702703,0.027027027,0.094594595,0,0.067567568,0.108108108,0.135135135,0.054054054,0.040540541,Target,16.4,0.051282051,0.408517984,0,1,0,2011Q3,2011Q3,0.023158773,-0.15544873
0.2,0.072727273,0.054545455,0.145454545,0.090909091,0.054545455,0.036363636,0.109090909,0.109090909,0.054545455,0.054545455,0.018181818,Target,21.29,0.030493708,-0.15205577,0,0,1,2011Q4,2011Q4,0.071548117,0.144073579
0.181818182,0.015151515,0.075757576,0.242424242,0,0.03030303,0.03030303,0.03030303,0.151515152,0.090909091,0.121212121,0.03030303,Target,16.87,0.058343789,0.795638656,0,0,0,2012Q1,2012Q1,0.13986698,0.102900412
0.106918239,0.044025157,0.081761006,0.106918239,0.025157233,0.050314465,0.125786164,0.150943396,0.100628931,0.06918239,0.056603774,0.081761006,Target,16.78,0.033251232,0.827531738,1,0,0,2012Q2,2012Q2,-0.00171556,-0.040083437
0.155555556,0,0.022222222,0.222222222,0.055555556,0.022222222,0.022222222,0.133333333,0.055555556,0.144444444,0.066666667,0.1,Target,16.93,0.032317073,0.219328148,0,1,0,2012Q3,2012Q3,0.089239746,0.055041706
0.192307692,0.012820513,0.038461538,0.217948718,0.038461538,0.051282051,0.038461538,0.102564103,0.076923077,0.115384615,0.051282051,0.064102564,Target,22.73,0.067637388,0.03604047,0,0,1,2012Q4,2012Q4,-0.060644547,-0.012668831
0.163265306,0.020408163,0.081632653,0.163265306,0.081632653,0.040816327,0.040816327,0.081632653,0.183673469,0.102040816,0.020408163,0.020408163,Target,16.71,-0.009484292,0.590329876,0,0,0,2013Q1,2013Q1,0.163719823,0.073009122
0.191780822,0.02739726,0.054794521,0.171232877,0.075342466,0.054794521,0.02739726,0.102739726,0.082191781,0.109589041,0.068493151,0.034246575,Target,17.12,0.020262217,0.540980612,1,0,0,2013Q2,2013Q2,0.002912904,0.028236364
0.171052632,0.065789474,0.026315789,0.197368421,0.105263158,0.039473684,0,0.092105263,0.039473684,0.118421053,0.052631579,0.092105263,Target,17.26,0.019492026,0.377979341,0,1,0,2013Q3,2013Q3,-0.077167171,0.041233219
0.066666667,0,0.051851852,0.185185185,0.081481481,0.02962963,0.059259259,0.185185185,0.125925926,0.125925926,0.051851852,0.037037037,Target,20.2,-0.111306643,-0.279067646,0,0,1,2013Q4,2013Q4,-0.010014082,0.090477876
0.172413793,0.017241379,0.051724138,0.206896552,0.120689655,0.051724138,0.017241379,0.120689655,0.137931034,0.017241379,0.017241379,0.068965517,Target,16.66,-0.00299222,0.76122253,0,0,0,2014Q1,2014Q1,-0.042260209,0.022030808
0.066666667,0.016666667,0.066666667,0.25,0.116666667,0.05,0.033333333,0.1,0.133333333,0.066666667,0.016666667,0.083333333,Target,16.96,-0.009345794,1.180867814,1,0,0,2014Q2,2014Q2,-0.043255737,0.039623022
0.126760563,0.014084507,0.042253521,0.253521127,0.084507042,0.028169014,0.042253521,0.14084507,0.098591549,0.056338028,0.028169014,0.084507042,Target,17.25,-0.000579374,0.114675844,0,1,0,2014Q3,2014Q3,0.073839301,-0.000521963
0.138461538,0.015384615,0.015384615,0.2,0.107692308,0.092307692,0.030769231,0.107692308,0.138461538,0.092307692,0.046153846,0.015384615,Target,21.75,0.076732673,-0.803351757,0,0,1,2014Q4,2014Q4,0.222974062,0.057929461
0.08056872,0.033175355,0.042654028,0.251184834,0.033175355,0.014218009,0.066350711,0.194312796,0.09478673,0.075829384,0.023696682,0.090047393,Target,17.12,0.027611044,-0.543199002,0,0,0,2015Q1,2015Q1,0.089472986,0.004707997
0.158536585,0.06097561,0.048780488,0.256097561,0.073170732,0.024390244,0.073170732,0.12195122,0.085365854,0.036585366,0.024390244,0.036585366,Target,17.43,0.027712264,1.205595644,1,0,0,2015Q2,2015Q2,-0.005603606,0.001660444
0.078125,0.03125,0.0625,0.25,0.140625,0.015625,0.046875,0.203125,0.0625,0.03125,0.03125,0.046875,Target,17.61,0.020869565,0.262677374,0,1,0,2015Q3,2015Q3,-0.052174961,-0.075762244
0.070175439,0.035087719,0.105263158,0.245614035,0.140350877,0.01754386,0.035087719,0.105263158,0.122807018,0.070175439,0.035087719,0.01754386,Target,21.63,-0.005517241,-0.449843688,0,0,1,2015Q4,2015Q4,-0.086781537,0.062438274
0.111111111,0.044444444,0.088888889,0.222222222,0.044444444,0.044444444,0,0.177777778,0.155555556,0.044444444,0.022222222,0.044444444,Target,16.2,-0.053738318,0.064634066,0,0,0,2016Q1,2016Q1,0.118694765,0.023391929
0.058823529,0.014705882,0.102941176,0.264705882,0.058823529,0.058823529,0.029411765,0.132352941,0.058823529,0.088235294,0.073529412,0.058823529,Target,16.17,-0.072289157,1.172350557,1,0,0,2016Q2,2016Q2,-0.156355727,0.012582136
0.051282051,0,0.153846154,0.243589744,0.051282051,0.012820513,0.076923077,0.102564103,0.076923077,0.102564103,0.08974359,0.038461538,Target,16.44,-0.066439523,0.332681941,0,1,0,2016Q3,2016Q3,-0.019557459,0.031061128
0.074626866,0,0.104477612,0.328358209,0.089552239,0,0.014925373,0.119402985,0.089552239,0.104477612,0.059701493,0.014925373,Target,21.47,-0.007397134,0.222574197,0,0,1,2016Q4,2016Q4,0.051688992,0.035919859
0.026785714,0.017857143,0.053571429,0.1875,0.125,0,0.0625,0.196428571,0.142857143,0.071428571,0.044642857,0.071428571,Target,16.22,0.001234568,0.790736963,0,0,0,2017Q1,2017Q1,-0.24137457,0.046456111
0.054054054,0.027027027,0.081081081,0.256756757,0.067567568,0,0.040540541,0.22972973,0.121621622,0.027027027,0.013513514,0.081081081,Target,16.63,0.028447743,0.543517706,1,0,0,2017Q2,2017Q2,-0.032204331,0.027373624
0.078651685,0.056179775,0.04494382,0.202247191,0.112359551,0.033707865,0.056179775,0.191011236,0.123595506,0.056179775,0.011235955,0.033707865,Target,16.87,0.026155718,0.396615691,0,1,0,2017Q3,2017Q3,0.120797721,0.037196224
0.051282051,0.025641026,0.025641026,0.179487179,0.179487179,0.051282051,0.051282051,0.166666667,0.102564103,0.051282051,0.051282051,0.064102564,Target,22.98,0.070330694,0.370629636,0,0,1,2017Q4,2017Q4,0.107997962,0.057130543
0.063157895,0.031578947,0.042105263,0.136842105,0.178947368,0,0.073684211,0.263157895,0.105263158,0.063157895,0,0.042105263,Target,16.78,0.034525277,0.88611838,0,0,0,2018Q1,2018Q1,0.026615407,-0.020379775
0.166666667,0,0.03030303,0.257575758,0.121212121,0.015151515,0.060606061,0.121212121,0.075757576,0.075757576,0.060606061,0.015151515,Target,17.78,0.069152135,1.033075567,1,0,0,2018Q2,2018Q2,0.103508263,0.052864579
0.093333333,0.013333333,0.08,0.24,0.093333333,0.026666667,0.066666667,0.106666667,0.16,0.026666667,0.053333333,0.04,Target,17.82,0.056312982,0.327267568,0,1,0,2018Q3,2018Q3,0.164181074,0.068679838
0.135416667,0.041666667,0.0625,0.15625,0.15625,0.072916667,0.010416667,0.083333333,0.114583333,0.09375,0.03125,0.041666667,Target,22.98,0,-0.057494736,0,0,1,2018Q4,2018Q4,-0.252967107,-0.142837116
0.075471698,0,0.056603774,0.150943396,0.132075472,0.028301887,0.08490566,0.235849057,0.075471698,0.103773585,0.028301887,0.028301887,Target,17.63,0.050655542,0.335116034,0,0,0,2019Q1,2019Q1,0.208007225,0.129229531
0.122222222,0.011111111,0.066666667,0.122222222,0.166666667,0.044444444,0.066666667,0.1,0.122222222,0.066666667,0.033333333,0.077777778,Target,18.42,0.035995501,1.198513227,1,0,0,2019Q2,2019Q2,0.083031137,0.026008043
0.101694915,0.016949153,0.050847458,0.203389831,0.186440678,0.033898305,0.06779661,0.13559322,0.084745763,0,0.033898305,0.084745763,Target,18.66,0.047138047,0.274166008,0,1,0,2019Q3,2019Q3,0.229698643,0.004186443
0.154761905,0.035714286,0.023809524,0.273809524,0.083333333,0.023809524,0.071428571,0.130952381,0.05952381,0.05952381,0.011904762,0.071428571,Target,23.4,0.018276762,0.213017997,0,0,1,2019Q4,2019Q4,0.210213328,0.098811326
0.072164948,0.051546392,0.092783505,0.030927835,0.010309278,0.010309278,0.020618557,0.103092784,0.113402062,0.12371134,0.319587629,0.051546392,Kroger,24.74,0.085563844,0.401415054,0,0,0,2010Q1,2010Q1,0.057617187,0.032162685
0.057692308,0.028846154,0.067307692,0.028846154,0.028846154,0.009615385,0.067307692,0.086538462,0.153846154,0.115384615,0.298076923,0.057692308,Kroger,18.76,0.058093627,0.475072152,1,0,0,2010Q2,2010Q2,-0.099634369,-0.125108225
0.133333333,0.091666667,0.05,0.066666667,0,0.05,0.066666667,0.05,0.1,0.058333333,0.266666667,0.066666667,Kroger,19.88,0.078676072,0.294916321,0,0,1,2010Q4,2010Q4,0.02946593,0.097187326
0.0875,0.0125,0.0375,0.05,0.0125,0.0375,0.0875,0.0375,0.1125,0.1,0.35,0.075,Kroger,27.46,0.109943411,1.264822375,0,0,0,2011Q1,2011Q1,0.088101726,0.04242572
0.113636364,0.022727273,0.056818182,0.102272727,0.011363636,0.011363636,0.056818182,0.079545455,0.034090909,0.159090909,0.318181818,0.034090909,Kroger,20.91,0.114605544,1.743310892,1,0,0,2011Q2,2011Q2,0.043771044,-0.008833617
0.057971014,0.014492754,0,0.028985507,0.043478261,0.115942029,0.043478261,0.028985507,0.130434783,0.15942029,0.362318841,0.014492754,Kroger,20.59,0.102838779,0.408517984,0,1,0,2011Q3,2011Q3,-0.124401914,-0.15544873
0.09,0.02,0.03,0.04,0.05,0.05,0.05,0.07,0.11,0.16,0.31,0.02,Kroger,21.3,0.071428571,-0.15205577,0,0,1,2011Q4,2011Q4,0.114075437,0.144073579
0.103896104,0.051948052,0.012987013,0.051948052,0.012987013,0.025974026,0.012987013,0.090909091,0.116883117,0.116883117,0.363636364,0.038961039,Kroger,29.06,0.05826657,0.795638656,0,0,0,2012Q1,2012Q1,-0.01141925,0.102900412
0.064516129,0.021505376,0.053763441,0.010752688,0.032258065,0,0.064516129,0.107526882,0.139784946,0.139784946,0.311827957,0.053763441,Kroger,21.73,0.039215686,0.827531738,1,0,0,2012Q2,2012Q2,-0.049180328,-0.040083437
0.077777778,0.044444444,0.011111111,0.011111111,0.022222222,0.077777778,0.077777778,0.122222222,0.111111111,0.1,0.3,0.044444444,Kroger,21.81,0.059252064,0.219328148,0,1,0,2012Q3,2012Q3,0.03245614,0.055041706
0.091743119,0.055045872,0.036697248,0.064220183,0.018348624,0.055045872,0.082568807,0.055045872,0.082568807,0.091743119,0.321100917,0.04587156,Kroger,24.02,0.127699531,0.03604047,0,0,1,2012Q4,2012Q4,0.094196804,-0.012668831
0.106796117,0.019417476,0.058252427,0.019417476,0.029126214,0.048543689,0.067961165,0.058252427,0.203883495,0.087378641,0.291262136,0.009708738,Kroger,30,0.032346869,0.590329876,0,0,0,2013Q1,2013Q1,0.256254738,0.073009122
0.066945607,0.075313808,0.046025105,0.020920502,0.029288703,0.033472803,0.10041841,0.121338912,0.125523013,0.184100418,0.133891213,0.062761506,Kroger,22.69,0.044178555,0.540980612,1,0,0,2013Q2,2013Q2,0.061462815,0.028236364
0.080808081,0.01010101,0.04040404,0.080808081,0.03030303,0.060606061,0.04040404,0.131313131,0.111111111,0.101010101,0.252525253,0.060606061,Kroger,22.47,0.030261348,0.377979341,0,1,0,2013Q3,2013Q3,0.163206459,0.041233219
0.04,0.026666667,0.026666667,0.106666667,0.013333333,0.026666667,0.133333333,0.093333333,0.146666667,0.093333333,0.28,0.013333333,Kroger,23.22,-0.033305579,-0.279067646,0,0,1,2013Q4,2013Q4,-0.027066929,0.090477876
0.090909091,0.012987013,0.103896104,0.038961039,0.038961039,0.025974026,0.051948052,0.103896104,0.12987013,0.168831169,0.181818182,0.051948052,Kroger,32.96,0.098666667,0.76122253,0,0,0,2014Q1,2014Q1,0.110997963,0.022030808
0.056818182,0.034090909,0.022727273,0.056818182,0.022727273,0.034090909,0.068181818,0.068181818,0.159090909,0.125,0.261363636,0.090909091,Kroger,25.31,0.11546937,1.180867814,1,0,0,2014Q2,2014Q2,0.132966529,0.039623022
0.072164948,0.020618557,0.030927835,0.041237113,0.06185567,0.051546392,0.082474227,0.103092784,0.18556701,0.175257732,0.175257732,0,Kroger,24.99,0.112149533,0.114675844,0,1,0,2014Q3,2014Q3,0.049656843,-0.000521963
0.114942529,0.022988506,0.011494253,0.034482759,0.057471264,0.034482759,0.068965517,0.091954023,0.091954023,0.183908046,0.218390805,0.068965517,Kroger,25.21,0.085701981,-0.803351757,0,0,1,2014Q4,2014Q4,0.244186047,0.057929461
0.134328358,0.014925373,0.029850746,0.014925373,0,0.029850746,0,0.164179104,0.149253731,0.194029851,0.253731343,0.014925373,Kroger,33.05,0.002730583,-0.543199002,0,0,0,2015Q1,2015Q1,0.206484105,0.004707997
0.040540541,0.040540541,0.081081081,0.027027027,0.040540541,0.013513514,0.094594595,0.148648649,0.054054054,0.175675676,0.202702703,0.081081081,Kroger,25.54,0.009087317,1.205595644,1,0,0,2015Q2,2015Q2,-0.055237103,0.001660444
0.026666667,0.013333333,0.026666667,0.053333333,0.026666667,0,0.093333333,0.146666667,0.106666667,0.186666667,0.253333333,0.066666667,Kroger,25.08,0.003601441,0.262677374,0,1,0,2015Q3,2015Q3,-0.015019115,-0.075762244
0.068181818,0.079545455,0.022727273,0.079545455,0.011363636,0.011363636,0.090909091,0.113636364,0.147727273,0.102272727,0.215909091,0.056818182,Kroger,26.16,0.037683459,-0.449843688,0,0,1,2015Q4,2015Q4,0.14040349,0.062438274
0.025,0.0375,0.0875,0.0375,0.05,0,0.05,0.15,0.125,0.15,0.25,0.0375,Kroger,34.6,0.046898638,0.064634066,0,0,0,2016Q1,2016Q1,-0.070699708,0.023391929
0.086021505,0.010752688,0.032258065,0.032258065,0.032258065,0.032258065,0.032258065,0.096774194,0.096774194,0.204301075,0.290322581,0.053763441,Kroger,26.56,0.039937353,1.172350557,1,0,0,2016Q2,2016Q2,-0.039926931,0.012582136
0.015151515,0.015151515,0.045454545,0.075757576,0.015151515,0.015151515,0.075757576,0.075757576,0.090909091,0.181818182,0.363636364,0.03030303,Kroger,26.56,0.059011164,0.332681941,0,1,0,2016Q3,2016Q3,-0.187961696,0.031061128
0.123595506,0.033707865,0.04494382,0.06741573,0.056179775,0.033707865,0.033707865,0.08988764,0.078651685,0.168539326,0.247191011,0.02247191,Kroger,27.61,0.055428135,0.222574197,0,0,1,2016Q4,2016Q4,0.178620219,0.035919859
0.072916667,0.041666667,0.041666667,0.072916667,0.041666667,0.0625,0.041666667,0.083333333,0.114583333,0.177083333,0.177083333,0.072916667,Kroger,36.28,0.048554913,0.790736963,0,0,0,2017Q1,2017Q1,-0.12544484,0.046456111
0.056603774,0.009433962,0.047169811,0.075471698,0.037735849,0.028301887,0.056603774,0.075471698,0.103773585,0.188679245,0.273584906,0.047169811,Kroger,27.6,0.039156627,0.543517706,1,0,0,2017Q2,2017Q2,-0.206802721,0.027373624
0.092783505,0.030927835,0.030927835,0.030927835,0.051546392,0.030927835,0.12371134,0.103092784,0.113402062,0.144329897,0.226804124,0.020618557,Kroger,27.75,0.044804217,0.396615691,0,1,0,2017Q3,2017Q3,-0.148195329,0.037196224
0.048543689,0.038834951,0.058252427,0.048543689,0.116504854,0.009708738,0.087378641,0.116504854,0.13592233,0.155339806,0.145631068,0.038834951,Kroger,31.65,0.146323796,0.370629636,0,0,1,2017Q4,2017Q4,0.375250501,0.057130543
0.093023256,0.034883721,0.058139535,0.034883721,0.046511628,0.046511628,0.034883721,0.139534884,0.209302326,0.104651163,0.151162791,0.046511628,Kroger,37.72,0.03969129,0.88611838,0,0,0,2018Q1,2018Q1,-0.154063604,-0.020379775
0.072289157,0.024096386,0.048192771,0.036144578,0.024096386,0.024096386,0.072289157,0.168674699,0.168674699,0.120481928,0.228915663,0.012048193,Kroger,28.01,0.014855072,1.033075567,1,0,0,2018Q2,2018Q2,0.222079038,0.052864579
0.086021505,0.043010753,0.010752688,0.032258065,0.086021505,0.053763441,0.064516129,0.086021505,0.172043011,0.096774194,0.215053763,0.053763441,Kroger,27.83,0.002882883,0.327267568,0,1,0,2018Q3,2018Q3,0.031537916,0.068679838
0.108910891,0.04950495,0.01980198,0.069306931,0.04950495,0.04950495,0.03960396,0.089108911,0.128712871,0.158415842,0.188118812,0.04950495,Kroger,28.29,-0.106161137,-0.057494736,0,0,1,2018Q4,2018Q4,-0.043478261,-0.142837116
0.108695652,0.02173913,0.065217391,0.010869565,0.043478261,0.010869565,0.065217391,0.141304348,0.206521739,0.086956522,0.184782609,0.054347826,Kroger,37.25,-0.012460233,0.335116034,0,0,0,2019Q1,2019Q1,-0.098901099,0.129229531
0.035714286,0.06122449,0.045918367,0.030612245,0.045918367,0.025510204,0.096938776,0.244897959,0.117346939,0.081632653,0.132653061,0.081632653,Kroger,28.17,0.005712246,1.198513227,1,0,0,2019Q2,2019Q2,-0.113153595,0.026008043
0.098765432,0.037037037,0.012345679,0.049382716,0.086419753,0,0.024691358,0.135802469,0.172839506,0.111111111,0.259259259,0.012345679,Kroger,27.97,0.005030543,0.274166008,0,1,0,2019Q3,2019Q3,0.193518519,0.004186443
0.076923077,0.019230769,0.048076923,0.038461538,0.048076923,0.038461538,0.028846154,0.105769231,0.144230769,0.134615385,0.307692308,0.009615385,Kroger,28.89,0.021208908,0.213017997,0,0,1,2019Q4,2019Q4,0.1328644,0.098811326
